!!!Melodie: eigene
!!!Typ: Lied
**kern	**silbe	**silbe	**silbe	**silbe	**silbe	**silbe	**silbe	**silbe
*clefG2	*lang:DE	*lang:DE	*lang:DE	*lang:DE	*lang:DE	*lang:DE	*lang:DE	*lang:DE
*k[b-]	*	*	*	*	*	*	*	*
*M4/4	*	*	*	*	*	*	*	*
*met(c)	*	*	*	*	*	*	*	*
4f	Lobt	Er	Er	Er	Das	Er	Er	Heut’
=	=	=	=	=	=	=	=	=
4cc	Gott,	kommt	äu#	liegt	aus	wech#	wird	schließt
4cc	ihr	aus	#ßert	an	sei’m	#selt	ein	er
4cc	Chri#	sei#	sich	sei#	Stamm	mit	Knecht	wie#
4cc	#sten	#nes	all	#ner	ent#	uns	und	#der
=	=	=	=	=	=	=	=	=
4dd	all#	Va#	sei#	Mutter	#sprie#	wun#	ich	auf
8Lcc	#zu#	#ters	#ner	Brust,	#sen	#der#	ein	die
8Jb-	|	|	|	|	|	|	|	|
2;a	#gleich,	Schoß	G'walt,	ihr	sollt’	#lich:	Herr:	Tür
=	=	=	=	=	=	=	=	=
4r	%	%	%	%	%	%	%	%
4g	in	und	wird	Milch,	in	Fleisch	das	zum
8La	sei#	wird	nied#	die	die#	und	mag	schö#
8Jb	|	|	|	|	|	|	|	|
4cc	#nem	ein	#rig	ist	#ser	Blut	ein	#nen
=	=	=	=	=	=	=	=	=
4cc	höch#	Kind#	und	sei#	letz#	nimmt	Wech#	Pa#
4b	#sten	#lein	ge#	#ne	#ten	er	#sel	#ra#
2;cc	Thron,	klein:	#ring,	Speis’,	Zeit,	an,	sein!	#deis,
=	=	=	=	=	=	=	=	=
4r	%	%	%	%	%	%	%	%
8La	der	er	und	an	durch	und	Wie	der
8Jb-	|	|	|	|	|	|	|	|
4cc	heut	liegt	nimmt	dem	wel#	gibt	könnt'	Che#
4cc	auf#	dort	an	die	#chen	uns	es	#rub
=	=	=	=	=	=	=	=	=
4cc	#schließt	e#	ei#	En#	Gott	in	doch	steht
8La	sein	#lend,	#nes	#gel	auf#	sein’s	sein	nicht
8Jb-	|	|	|	|	|	|	|	|
4cc	Kö#	nackt	Knechts	seh’n	#rich#	Va#	freund#	mehr
8Lb-	#nig#	und	Ge#	ihr	#ten	#ters	#lich#	da#
8Ja	|	|	|	|	|	|	|	|
=	=	=	=	=	=	=	=	=
2;g	#reich,	bloß	#stalt,	Lust,	wollt’,	Reich	#er,	#für:
4r	%	%	%	%	%	%	%	%
4cc	und	in	der	denn	sein	die	das	Gott
=	=	=	=	=	=	=	=	=
4b-	schenkt	ei#	Schöp#	er	Reich,	kla#	her#	sei
4a	uns	#nem	#fer	ist	die	#re	#ze	Lob,
4g	sei#	Krip#	al#	Da#	Chris#	Gott#	Je#	Ehr’
4g	#nen	#pe#	#ler	#vids	#ten#	#heit	#su#	und
=	=	=	=	=	=	=	=	=
(8Lf	Sohn,	#lein,	Ding	Reis,	#heit,	dran,	#lein,	Preis,
8g	|	|	|	|	|	|	|	|
8a	|	|	|	|	|	|	|	|
8Jb-	|	|	|	|	|	|	|	|
4;cc)	|	|	|	|	|	|	|	|
4a	und	in	der	denn	sein	die	das	Gott
=	=	=	=	=	=	=	=	=
4b-	schenkt	ei#	Schöp#	er	Reich,	kla#	her#	sei
4a	uns	#nem	#fer	ist	die	#re	#ze	Lob,
4g	sei#	Krip#	al#	Da#	Chris#	Gott#	Je#	Ehr’
4g	#nen	#pe#	#ler	#vids	#ten#	#heit	#su#	und
=	=	=	=	=	=	=	=	=
2.;g	Sohn.	#lein.	Ding.	Reis.	#heit.	dran.	#lein?	Preis.
==	==	==	==	==	==	==	==	==
*-	*-	*-	*-	*-	*-	*-	*-	*-
